static/icons/external-link.svg

<svg
  fill="#000000"
  xmlns="http://www.w3.org/2000/svg"
  viewBox="0 0 64 64"
  role="img"
>
  <path
    d="M 40 10 C 38.896 10 38 10.896 38 12 C 38 13.104 38.896 14 40 14 L 47.171875 14 L 30.585938 30.585938 C 29.804938 31.366938 29.804938 32.633063 30.585938 33.414062 C 30.976938 33.805063 31.488 34 32 34 C 32.512 34 33.023063 33.805062 33.414062 33.414062 L 50 16.828125 L 50 24 C 50 25.104 50.896 26 52 26 C 53.104 26 54 25.104 54 24 L 54 12 C 54 10.896 53.104 10 52 10 L 40 10 z M 18 12 C 14.691 12 12 14.691 12 18 L 12 46 C 12 49.309 14.691 52 18 52 L 46 52 C 49.309 52 52 49.309 52 46 L 52 34 C 52 32.896 51.104 32 50 32 C 48.896 32 48 32.896 48 34 L 48 46 C 48 47.103 47.103 48 46 48 L 18 48 C 16.897 48 16 47.103 16 46 L 16 18 C 16 16.897 16.897 16 18 16 L 30 16 C 31.104 16 32 15.104 32 14 C 32 12.896 31.104 12 30 12 L 18 12 z"
  />
</svg>

<svg viewBox="0 0 64 64"><path d="M40 10a2 2 0 000 4h7.172L30.586 30.586a2 2 0 102.828 2.828L50 16.828V24a2 2 0 004 0V12a2 2 0 00-2-2H40zm-22 2c-3.309 0-6 2.691-6 6v28c0 3.309 2.691 6 6 6h28c3.309 0 6-2.691 6-6V34a2 2 0 00-4 0v12c0 1.103-.897 2-2 2H18c-1.103 0-2-.897-2-2V18c0-1.103.897-2 2-2h12a2 2 0 000-4H18z"/></svg>
